X:3
T:Trip to Nenagh
C:Sean Ryan
B:Martin Mulvihill, 1986, 'First Collection of Traditional
B:Irish Music', page 23.
N:One of Andrew Clune's piano accordion tunes. Still
N:not sure if I have heard it correctly.
Z:ATB
R:reel
M:4/4
L:1/8
K:Dmix
DcAG (3FGADC|A,DFA dcAG|Ad(3dcd Adfd|(3cdcAc EcGc|
(3dedAG (3FGADC|A,DFA dcAG|Ad(3dcd AdFA|GFEG FDD2:|]
Ad(3dcd adfa|gfed cAec|(3dedAd FDGF|GFGA dcAc|
cded Adfd|cdef (3gfefg|(3abafa daec|dcBG FDD2:|]
